src/food-drink/food-fruit/1F34F.svg

<svg id="emoji" viewBox="0 0 72 72" xmlns="http://www.w3.org/2000/svg">
  <g id="grid">
    <path fill="#b3b3b3" d="M68,4V68H4V4H68m4-4H0V72H72V0Z"/>
    <path fill="none" stroke="#00a5ff" stroke-miterlimit="10" stroke-width="0.1" d="M12.923,10.9583H59.0769A1.9231,1.9231,0,0,1,61,12.8814V59.0352a1.9231,1.9231,0,0,1-1.9231,1.9231H12.9231A1.9231,1.9231,0,0,1,11,59.0352V12.8813A1.923,1.923,0,0,1,12.923,10.9583Z"/>
    <rect x="16" y="4" rx="2.2537" width="40" height="64" fill="none" stroke="#00a5ff" stroke-miterlimit="10" stroke-width="0.1"/>
    <rect x="16" y="4" rx="2.2537" width="40" height="64" transform="translate(72) rotate(90)" fill="none" stroke="#00a5ff" stroke-miterlimit="10" stroke-width="0.1"/>
    <circle cx="36" cy="36" r="29" fill="none" stroke="#00a5ff" stroke-miterlimit="10" stroke-width="0.1"/>
  </g>
  <g id="color">
    <path fill="#B1CC33" stroke="#B1CC33" stroke-linecap="round" stroke-linejoin="round" stroke-miterlimit="10" stroke-width="2" d="M43.9805,22.748c3.2532-1.7664,6.7524-2.0682,9.8603-0.5143c6.7971,3.4098,9.1671,14.3768,5.3102,24.4942 c-3.8569,10.1286-12.4875,15.573-19.2735,12.1633c-0.4877-0.2459-0.953-0.5297-1.3942-0.849 c-1.2846-0.9296-3.0462-0.93-4.3311-0.0009c-0.4421,0.3197-0.9078,0.6038-1.396,0.8499 c-6.7971,3.4097-15.4276-2.0347-19.2846-12.1633c-3.8569-10.1174-1.4756-21.0845,5.3102-24.4942 c3.1079-1.5539,6.5959-1.2633,9.838,0.4919c0,0,0.0559,0.0336,0.1677,0.0895c0.7379,0.3913,3.9128,1.9564,7.0878,1.9564 c3.1637,0,7.043-1.5652,7.9598-1.9564C43.9022,22.7816,43.9469,22.7592,43.9805,22.748"/>
    <path fill="#f4aa41" stroke="none" d="M49.407,21.2342c-0.0849-0.0094-0.1605,0-0.2454,0.0094l0.0377-0.2266 C49.2749,21.0926,49.341,21.1587,49.407,21.2342z"/>
    <path fill="#5C9E31" stroke="#5C9E31" stroke-linejoin="round" stroke-miterlimit="10" stroke-width="2" d="M36.2186,57.324 l-0.223,0.0652c-0.6184,0.0559-1.2366,0.2328-1.7738,0.5493c-0.071,0.0373-0.1521,0.0838-0.223,0.1304 c-0.4764,0.3166-0.9731,0.5959-1.5001,0.838c-1.5103,0.6983-3.1118,1.0148-4.7336,1.0055c-0.0405,0-0.081,0-0.1216-0.0093 C27.9374,59.5399,29.9443,57.324,36.2186,57.324z"/>
    <path fill="#5C9E31" stroke="#5C9E31" stroke-linejoin="round" stroke-miterlimit="10" stroke-width="2" d="M59.1497,46.7238 c-3.3608,8.8364-11.2484,16.1269-21.3971,10.8559c8.2802,1.7898,28.8929-18.7766,11.6544-36.3455 c1.52-0.0283,3.021,0.2927,4.4371,1.0007C60.6414,25.643,63.011,36.6129,59.1497,46.7238z"/>
    <path fill="#B1CC33" stroke="none" stroke-linecap="round" stroke-linejoin="round" stroke-miterlimit="10" stroke-width="2" d="M48.4527,17.2241c3.9562,1.3292,6.8444,5.8193,6.8444,5.8193s-5.0134,1.8354-8.9696,0.5062 c-3.9508-1.3274-6.8444-5.8193-6.8444-5.8193S44.5019,15.8967,48.4527,17.2241z"/>
  </g>
  <g id="hair"/>
  <g id="skin"/>
  <g id="skin-shadow"/>
  <g id="line">
    <polyline fill="none" stroke="#000000" stroke-linecap="round" stroke-linejoin="round" stroke-miterlimit="10" stroke-width="2" points="35.4541,20.5625 35.4541,15.1018 31.1106,10.7583"/>
    <path fill="none" stroke="#000000" stroke-linecap="round" stroke-linejoin="round" stroke-miterlimit="10" stroke-width="2" d="M39.8538,24.1763"/>
    <path fill="none" stroke="#000000" stroke-linecap="round" stroke-linejoin="round" stroke-miterlimit="10" stroke-width="2" d="M38.124,24.557"/>
    <path fill="none" stroke="#000000" stroke-linecap="round" stroke-linejoin="round" stroke-miterlimit="10" stroke-width="2" d="M57.7417,25.5951c3.6482,4.9493,4.3968,13.296,1.4093,21.1329c-3.8569,10.1286-12.4875,15.573-19.2735,12.1633 c-0.4877-0.2459-0.953-0.5297-1.3942-0.849c-1.2846-0.9296-3.0462-0.93-4.3311-0.0009c-0.4421,0.3197-0.9078,0.6038-1.396,0.8499 c-6.7971,3.4097-15.4276-2.0347-19.2846-12.1633c-3.8569-10.1174-1.4756-21.0845,5.3102-24.4942 c3.1079-1.5539,6.5959-1.2633,9.838,0.4919c0,0,0.0559,0.0336,0.1677,0.0895c0.7379,0.3913,3.9128,1.9564,7.0878,1.9564 c0.7267,0,1.4911-0.0826,2.2487-0.2145c0,0,1.1885-0.182,2.126-0.4632"/>
    <path fill="none" stroke="#000000" stroke-linecap="round" stroke-linejoin="round" stroke-miterlimit="10" stroke-width="2" d="M48.4527,17.2241c3.9562,1.3292,6.8444,5.8193,6.8444,5.8193s-5.0134,1.8354-8.9696,0.5062 c-3.9508-1.3274-6.8444-5.8193-6.8444-5.8193S44.5019,15.8967,48.4527,17.2241z"/>
  </g>
</svg>

<svg viewBox="0 0 72 72" xmlns="http://www.w3.org/2000/svg"><path fill="#b3b3b3" d="M68 4v64H4V4h64m4-4H0v72h72V0z"/><path fill="none" stroke="#00a5ff" stroke-miterlimit="10" stroke-width=".1" d="M12.923 10.958h46.154A1.923 1.923 0 0161 12.881v46.154a1.923 1.923 0 01-1.923 1.923H12.923A1.923 1.923 0 0111 59.035V12.881a1.923 1.923 0 011.923-1.923z"/><rect x="16" y="4" rx="2.254" width="40" height="64" fill="none" stroke="#00a5ff" stroke-miterlimit="10" stroke-width=".1"/><rect x="16" y="4" rx="2.254" width="40" height="64" transform="rotate(90 36 36)" fill="none" stroke="#00a5ff" stroke-miterlimit="10" stroke-width=".1"/><circle cx="36" cy="36" r="29" fill="none" stroke="#00a5ff" stroke-miterlimit="10" stroke-width=".1"/><path d="M35.454 20.563v-5.461l-4.343-4.344m26.631 14.837c3.648 4.95 4.397 13.296 1.409 21.133-3.857 10.129-12.488 15.573-19.273 12.163a10.24 10.24 0 01-1.395-.849 3.713 3.713 0 00-4.33 0c-.443.32-.909.603-1.397.85C25.96 62.3 17.33 56.856 13.472 46.727c-3.857-10.117-1.476-21.085 5.31-24.494 3.108-1.554 6.596-1.264 9.838.492 0 0 .056.033.168.09.737.39 3.912 1.956 7.087 1.956.727 0 1.491-.083 2.249-.215 0 0 1.188-.182 2.126-.463m8.203-6.869c3.956 1.33 6.844 5.82 6.844 5.82s-5.013 1.835-8.97.506c-3.95-1.328-6.844-5.82-6.844-5.82s5.019-1.833 8.97-.506z" stroke-linecap="round" stroke-miterlimit="10" stroke-width="6" stroke="#fff" fill="none" stroke-linejoin="round"/><path fill="#B1CC33" stroke="#B1CC33" stroke-linecap="round" stroke-linejoin="round" stroke-miterlimit="10" stroke-width="2" d="M43.98 22.748c3.254-1.766 6.753-2.068 9.86-.514 6.798 3.41 9.168 14.377 5.311 24.494C55.294 56.857 46.663 62.3 39.878 58.89a10.24 10.24 0 01-1.395-.849 3.713 3.713 0 00-4.33 0c-.443.319-.909.603-1.397.85C25.96 62.3 17.33 56.856 13.472 46.727c-3.857-10.117-1.476-21.085 5.31-24.494 3.108-1.554 6.596-1.264 9.838.492 0 0 .056.033.168.09.737.39 3.912 1.956 7.087 1.956 3.164 0 7.043-1.566 7.96-1.957.067-.033.112-.056.145-.067"/><path fill="#f4aa41" d="M49.407 21.234c-.085-.01-.16 0-.245.01l.037-.227c.076.076.142.142.208.217z"/><path fill="#5C9E31" stroke="#5C9E31" stroke-linejoin="round" stroke-miterlimit="10" stroke-width="2" d="M36.219 57.324l-.223.065a4.262 4.262 0 00-1.774.55 2.754 2.754 0 00-.223.13c-.477.316-.973.596-1.5.838a11.046 11.046 0 01-4.734 1.005c-.04 0-.08 0-.122-.009.294-.363 2.301-2.579 8.576-2.579zm22.931-10.6C55.789 55.56 47.9 62.85 37.753 57.58c8.28 1.79 28.893-18.777 11.654-36.346a9.443 9.443 0 014.437 1c6.797 3.409 9.167 14.379 5.306 24.49z"/><path fill="#B1CC33" d="M48.453 17.224c3.956 1.33 6.844 5.82 6.844 5.82s-5.013 1.835-8.97.506c-3.95-1.328-6.844-5.82-6.844-5.82s5.019-1.833 8.97-.506z"/><path d="M35.454 20.563v-5.461l-4.343-4.344m26.631 14.837c3.648 4.95 4.397 13.296 1.409 21.133-3.857 10.129-12.488 15.573-19.273 12.163a10.24 10.24 0 01-1.395-.849 3.713 3.713 0 00-4.33 0c-.443.32-.909.603-1.397.85C25.96 62.3 17.33 56.856 13.472 46.727c-3.857-10.117-1.476-21.085 5.31-24.494 3.108-1.554 6.596-1.264 9.838.492 0 0 .056.033.168.09.737.39 3.912 1.956 7.087 1.956.727 0 1.491-.083 2.249-.215 0 0 1.188-.182 2.126-.463m8.203-6.869c3.956 1.33 6.844 5.82 6.844 5.82s-5.013 1.835-8.97.506c-3.95-1.328-6.844-5.82-6.844-5.82s5.019-1.833 8.97-.506z" fill="none" stroke="#000" stroke-linecap="round" stroke-linejoin="round" stroke-miterlimit="10" stroke-width="2"/></svg>
